symbols/web/language/materialsymbolsoutlined/language_wght700_20px.svg

<svg xmlns="http://www.w3.org/2000/svg" height="20" width="20"><path d="M10 19.042q-1.854 0-3.5-.719t-2.875-1.948Q2.396 15.146 1.677 13.5.958 11.854.958 10t.719-3.5q.719-1.646 1.948-2.875T6.5 1.677Q8.146.958 10 .958t3.5.719q1.646.719 2.875 1.948T18.323 6.5q.719 1.646.719 3.5t-.719 3.5q-.719 1.646-1.948 2.875T13.5 18.323q-1.646.719-3.5.719ZM13.188 6.75h2.229q-.542-.958-1.407-1.667-.864-.708-1.885-1.041.396.583.646 1.302.25.718.417 1.406Zm-4.584 0h2.771q-.208-.833-.583-1.635-.375-.803-.834-1.49-.437.75-.781 1.542-.344.791-.573 1.583Zm-4.75 4.771h2.604q-.041-.417-.073-.792-.031-.375-.031-.75t.031-.739q.032-.365.073-.782H3.854q-.104.459-.146.823-.041.365-.041.719 0 .333.041.698.042.364.146.823Zm3.958 4.437q-.374-.562-.604-1.291-.229-.729-.396-1.459H4.583q.5.959 1.344 1.667.844.708 1.885 1.083ZM4.583 6.75h2.229q.188-.729.407-1.437.219-.709.593-1.271-1.02.333-1.864 1.041-.844.709-1.365 1.667Zm5.375 9.604q.438-.687.813-1.5.375-.812.604-1.646H8.604q.229.792.573 1.594t.781 1.552Zm-1.75-4.833h3.563q.062-.542.073-.886.01-.343.01-.656 0-.312-.01-.646-.011-.333-.073-.875H8.208q-.041.417-.073.782-.031.364-.031.739t.031.75q.032.375.073.792Zm3.917 4.437q1.042-.375 1.917-1.083t1.375-1.667h-2.229q-.167.688-.417 1.417-.25.729-.646 1.333Zm1.396-4.437h2.583q.104-.354.146-.74.042-.385.042-.802 0-.417-.042-.791-.042-.376-.146-.73h-2.583q.041.542.062.875.021.334.021.646 0 .313-.021.656-.021.344-.062.886Z"/></svg>

<svg xmlns="http://www.w3.org/2000/svg" height="20" width="20"><path d="M10 19.042Q8.146 19.042 6.5 18.323Q4.854 17.604 3.625 16.375Q2.396 15.146 1.677 13.5Q0.958 11.854 0.958 10Q0.958 8.146 1.677 6.5Q2.396 4.854 3.625 3.625Q4.854 2.396 6.5 1.677Q8.146 0.958 10 0.958Q11.854 0.958 13.5 1.677Q15.146 2.396 16.375 3.625Q17.604 4.854 18.323 6.5Q19.042 8.146 19.042 10Q19.042 11.854 18.323 13.5Q17.604 15.146 16.375 16.375Q15.146 17.604 13.5 18.323Q11.854 19.042 10 19.042ZM13.188 6.75H15.417Q14.875 5.792 14.01 5.083Q13.146 4.375 12.125 4.042Q12.521 4.625 12.771 5.344Q13.021 6.062 13.188 6.75ZM8.604 6.75H11.375Q11.167 5.917 10.792 5.115Q10.417 4.312 9.958 3.625Q9.521 4.375 9.177 5.167Q8.833 5.958 8.604 6.75ZM3.854 11.521H6.458Q6.417 11.104 6.385 10.729Q6.354 10.354 6.354 9.979Q6.354 9.604 6.385 9.24Q6.417 8.875 6.458 8.458H3.854Q3.75 8.917 3.708 9.281Q3.667 9.646 3.667 10Q3.667 10.333 3.708 10.698Q3.75 11.062 3.854 11.521ZM7.812 15.958Q7.438 15.396 7.208 14.667Q6.979 13.938 6.812 13.208H4.583Q5.083 14.167 5.927 14.875Q6.771 15.583 7.812 15.958ZM4.583 6.75H6.812Q7 6.021 7.219 5.313Q7.438 4.604 7.812 4.042Q6.792 4.375 5.948 5.083Q5.104 5.792 4.583 6.75ZM9.958 16.354Q10.396 15.667 10.771 14.854Q11.146 14.042 11.375 13.208H8.604Q8.833 14 9.177 14.802Q9.521 15.604 9.958 16.354ZM8.208 11.521H11.771Q11.833 10.979 11.844 10.635Q11.854 10.292 11.854 9.979Q11.854 9.667 11.844 9.333Q11.833 9 11.771 8.458H8.208Q8.167 8.875 8.135 9.24Q8.104 9.604 8.104 9.979Q8.104 10.354 8.135 10.729Q8.167 11.104 8.208 11.521ZM12.125 15.958Q13.167 15.583 14.042 14.875Q14.917 14.167 15.417 13.208H13.188Q13.021 13.896 12.771 14.625Q12.521 15.354 12.125 15.958ZM13.521 11.521H16.104Q16.208 11.167 16.25 10.781Q16.292 10.396 16.292 9.979Q16.292 9.562 16.25 9.188Q16.208 8.812 16.104 8.458H13.521Q13.562 9 13.583 9.333Q13.604 9.667 13.604 9.979Q13.604 10.292 13.583 10.635Q13.562 10.979 13.521 11.521Z"/></svg>
